X:140
T:Monzani TS.140
T:Morgiano TS.140
T:Morgiana,aka TS.140
M:6/8
L:1/8
Q:3/8=110
S:Thomas Sands’ MS,1810,Lincolnshire
R:jig
N:Also in the Gibbons MS as “Morgiana”
O:England;Lincolnshire
Z:vmp.Ruairidh Greig, 2011
K:F
c|cAc {fg}a2g|fed c2d|cAc fcf|agf fed|
cAc fag|fedc2d|cAc fcf|agef2:|
|:(e/f/)|gag fed|ccc b2c|acc fcc|aggg2 e/f/|
gag fed|cdcb2g|a2f fef|gfe dcB|
AFGA2c|AFGA2c|B2dA2c|G3GcB|
AFGA2c|AFGA2c|d2fe2g|fca f2|]

